X:49
T:Biddy Oats
S:CF&D Vol I, p. 15
M:2/4
L:1/16
Q:1/4=90
K:D
%%MIDI channel 1
%%MIDI program 72
%%MIDI transpose 8
%%MIDI grace 1/8
%%MIDI ratio 3 1
|:(3(ABc)|d2fd A2dA|F2AF D2A2|dcBA gfed|efce dcBA|d2fd A2dA|
F2AF D2ef|gefd ecdB|A2c2d2::fe|d2FG A2gf|e2EF G2fe|dAFA gfed|
cedB A2fe|dABc dAgf|edcd eAag|fedc Bgec|d2f2d2:|
